svg/emoji_u2622.svg

<?xml version="1.0" encoding="UTF-8"?>
<svg width="128" height="128" enable-background="new 0 0 128 128" xmlns="http://www.w3.org/2000/svg"><linearGradient id="d" x1="64" x2="64" y1="3.1667" y2="124.88" gradientUnits="userSpaceOnUse"><stop stop-color="#FFEB3B" offset="0"/><stop stop-color="#FFDC28" offset=".419"/><stop stop-color="#FFC107" offset=".9954"/></linearGradient><circle cx="64" cy="64" r="60" fill="url(#d)"/><g opacity=".2"><path d="M64,7c31.43,0,57,25.57,57,57s-25.57,57-57,57S7,95.43,7,64S32.57,7,64,7 M64,4 C30.86,4,4,30.86,4,64s26.86,60,60,60s60-26.86,60-60S97.14,4,64,4L64,4z" fill="#424242"/></g><g fill="#424242" opacity=".2"><path d="m88.13 24.37c0.34 0 0.68 0.09 0.98 0.29 12.65 8.02 21.22 21.9 21.85 37.83 0.04 1.02-0.77 1.88-1.79 1.88h-32.66c-0.87 0-1.64-0.62-1.76-1.49-0.39-2.83-1.87-5.31-4.01-7-0.71-0.57-0.94-1.55-0.49-2.34l16.33-28.29c0.33-0.57 0.93-0.88 1.55-0.88m0-3c-1.71 0-3.3 0.92-4.15 2.39l-16.33 28.29c-1.2 2.07-0.68 4.67 1.22 6.19 1.6 1.27 2.62 3.06 2.9 5.06 0.32 2.33 2.36 4.08 4.74 4.08h32.66c1.29 0 2.55-0.54 3.45-1.47 0.9-0.94 1.39-2.23 1.34-3.53-0.65-16.39-9.33-31.44-23.24-40.25-0.78-0.5-1.67-0.76-2.59-0.76z"/><path d="m39.87 24.37c0.62 0 1.22 0.31 1.55 0.89l16.33 28.29c0.46 0.79 0.23 1.77-0.49 2.34-2.13 1.69-3.62 4.17-4.01 7-0.12 0.86-0.89 1.49-1.76 1.49h-32.66c-1.02 0-1.83-0.86-1.79-1.88 0.63-15.93 9.19-29.82 21.85-37.83 0.3-0.21 0.64-0.3 0.98-0.3m0-3c-0.92 0-1.81 0.26-2.59 0.75-13.91 8.81-22.59 23.86-23.24 40.25-0.05 1.3 0.44 2.59 1.34 3.53 0.9 0.93 2.15 1.47 3.45 1.47h32.66c2.38 0 4.42-1.75 4.74-4.08 0.27-2 1.3-3.79 2.9-5.06 1.9-1.51 2.42-4.11 1.22-6.19l-16.33-28.28c-0.85-1.47-2.44-2.39-4.15-2.39z"/><path d="m68.71 74.3c0.62 0 1.22 0.33 1.54 0.9l16.33 28.29c0.51 0.89 0.17 2.01-0.74 2.49-6.53 3.44-13.96 5.39-21.85 5.39s-15.32-1.95-21.85-5.39c-0.91-0.48-1.25-1.6-0.74-2.49l16.35-28.29c0.33-0.57 0.92-0.9 1.54-0.9 0.22 0 0.43 0.04 0.65 0.13 1.25 0.51 2.62 0.79 4.06 0.79s2.81-0.28 4.06-0.79c0.21-0.09 0.43-0.13 0.65-0.13m0-3c-0.61 0-1.21 0.12-1.78 0.35-0.93 0.37-1.92 0.57-2.93 0.57s-2-0.19-2.93-0.57c-0.57-0.23-1.16-0.35-1.78-0.35-1.7 0-3.29 0.92-4.14 2.4l-16.33 28.29c-0.66 1.14-0.82 2.46-0.45 3.72 0.36 1.25 1.23 2.32 2.39 2.93 7.13 3.75 15.16 5.74 23.24 5.74s16.12-1.98 23.24-5.74c1.16-0.61 2.03-1.68 2.39-2.93 0.36-1.26 0.2-2.58-0.45-3.72l-16.33-28.29c-0.86-1.48-2.44-2.4-4.14-2.4z"/><path d="m64 57.14c3.99 0 7.23 3.24 7.23 7.23s-3.24 7.23-7.23 7.23-7.23-3.24-7.23-7.23 3.24-7.23 7.23-7.23m0-3c-5.64 0-10.23 4.59-10.23 10.23s4.59 10.23 10.23 10.23 10.23-4.59 10.23-10.23-4.59-10.23-10.23-10.23z"/></g><linearGradient id="c" x1="90.488" x2="90.488" y1="22.5" y2="113.37" gradientUnits="userSpaceOnUse"><stop stop-color="#616161" offset="0"/><stop stop-color="#3F3F3F" offset=".4947"/><stop stop-color="#212121" offset="1"/></linearGradient><path d="m76.51 64.37h32.66c1.02 0 1.83-0.86 1.79-1.88-0.63-15.93-9.19-29.82-21.85-37.83-0.87-0.55-2.02-0.29-2.53 0.6l-16.33 28.29c-0.46 0.79-0.23 1.77 0.49 2.34 2.13 1.69 3.62 4.17 4.01 7 0.11 0.86 0.89 1.48 1.76 1.48z" fill="url(#c)"/><linearGradient id="b" x1="37.512" x2="37.512" y1="22.5" y2="113.37" gradientUnits="userSpaceOnUse"><stop stop-color="#616161" offset="0"/><stop stop-color="#3F3F3F" offset=".4947"/><stop stop-color="#212121" offset="1"/></linearGradient><path d="m57.75 53.55-16.33-28.29c-0.51-0.89-1.66-1.15-2.53-0.6-12.65 8.02-21.22 21.9-21.85 37.83-0.04 1.02 0.77 1.88 1.79 1.88h32.66c0.87 0 1.64-0.62 1.76-1.49 0.39-2.83 1.87-5.31 4.01-7 0.72-0.56 0.95-1.54 0.49-2.33z" fill="url(#b)"/><linearGradient id="a" x1="64" x2="64" y1="22.5" y2="113.37" gradientUnits="userSpaceOnUse"><stop stop-color="#616161" offset="0"/><stop stop-color="#3F3F3F" offset=".4947"/><stop stop-color="#212121" offset="1"/></linearGradient><path d="m64 75.22c-1.44 0-2.81-0.28-4.06-0.79-0.81-0.33-1.75 0.01-2.19 0.77l-16.33 28.29c-0.51 0.89-0.17 2.01 0.74 2.49 6.53 3.44 13.96 5.39 21.85 5.39s15.32-1.95 21.85-5.39c0.91-0.48 1.25-1.6 0.74-2.49l-16.35-28.29c-0.44-0.76-1.37-1.11-2.19-0.77-1.25 0.5-2.62 0.79-4.06 0.79z" fill="url(#a)"/><circle cx="64" cy="64.37" r="7.23" fill="url(#a)"/></svg>

<svg width="128" height="128" style="enable-background:new 0 0 128 128;" xmlns="http://www.w3.org/2000/svg" xmlns:xlink="http://www.w3.org/1999/xlink">
  <g>
    <linearGradient id="SVGID_1_" gradientUnits="userSpaceOnUse" x1="64" x2="64" y1="3.1667" y2="124.8796">
      <stop offset="0" style="stop-color:#FFEB3B"/>
      <stop offset="0.419" style="stop-color:#FFDC28"/>
      <stop offset="0.9954" style="stop-color:#FFC107"/>
    </linearGradient>
    <circle cx="64" cy="64" r="60" style="fill:url(#SVGID_1_);"/>
    <g style="opacity:0.2;">
      <path d="M64,7c31.43,0,57,25.57,57,57s-25.57,57-57,57S7,95.43,7,64S32.57,7,64,7 M64,4 C30.86,4,4,30.86,4,64s26.86,60,60,60s60-26.86,60-60S97.14,4,64,4L64,4z" style="fill:#424242;"/>
    </g>
    <g style="opacity:0.2;">
      <g>
        <path d="M88.13,24.37c0.34,0,0.68,0.09,0.98,0.29c12.65,8.02,21.22,21.9,21.85,37.83 c0.04,1.02-0.77,1.88-1.79,1.88H76.51c-0.87,0-1.64-0.62-1.76-1.49c-0.39-2.83-1.87-5.31-4.01-7c-0.71-0.57-0.94-1.55-0.49-2.34 l16.33-28.29C86.91,24.68,87.51,24.37,88.13,24.37 M88.13,21.37c-1.71,0-3.3,0.92-4.15,2.39L67.65,52.05 c-1.2,2.07-0.68,4.67,1.22,6.19c1.6,1.27,2.62,3.06,2.9,5.06c0.32,2.33,2.36,4.08,4.74,4.08h32.66c1.29,0,2.55-0.54,3.45-1.47 c0.9-0.94,1.39-2.23,1.34-3.53c-0.65-16.39-9.33-31.44-23.24-40.25C89.94,21.63,89.05,21.37,88.13,21.37L88.13,21.37z" style="fill:#424242;"/>
        <path d="M39.87,24.37c0.62,0,1.22,0.31,1.55,0.89l16.33,28.29c0.46,0.79,0.23,1.77-0.49,2.34 c-2.13,1.69-3.62,4.17-4.01,7c-0.12,0.86-0.89,1.49-1.76,1.49H18.83c-1.02,0-1.83-0.86-1.79-1.88 c0.63-15.93,9.19-29.82,21.85-37.83C39.19,24.46,39.53,24.37,39.87,24.37 M39.87,21.37c-0.92,0-1.81,0.26-2.59,0.75 c-13.91,8.81-22.59,23.86-23.24,40.25c-0.05,1.3,0.44,2.59,1.34,3.53c0.9,0.93,2.15,1.47,3.45,1.47h32.66 c2.38,0,4.42-1.75,4.74-4.08c0.27-2,1.3-3.79,2.9-5.06c1.9-1.51,2.42-4.11,1.22-6.19L44.02,23.76 C43.17,22.29,41.58,21.37,39.87,21.37L39.87,21.37z" style="fill:#424242;"/>
        <path d="M68.71,74.3c0.62,0,1.22,0.33,1.54,0.9l16.33,28.29c0.51,0.89,0.17,2.01-0.74,2.49 c-6.53,3.44-13.96,5.39-21.85,5.39s-15.32-1.95-21.85-5.39c-0.91-0.48-1.25-1.6-0.74-2.49L57.75,75.2 c0.33-0.57,0.92-0.9,1.54-0.9c0.22,0,0.43,0.04,0.65,0.13c1.25,0.51,2.62,0.79,4.06,0.79c1.44,0,2.81-0.28,4.06-0.79 C68.27,74.34,68.49,74.3,68.71,74.3 M68.71,71.3c-0.61,0-1.21,0.12-1.78,0.35C66,72.02,65.01,72.22,64,72.22s-2-0.19-2.93-0.57 c-0.57-0.23-1.16-0.35-1.78-0.35c-1.7,0-3.29,0.92-4.14,2.4l-16.33,28.29c-0.66,1.14-0.82,2.46-0.45,3.72 c0.36,1.25,1.23,2.32,2.39,2.93c7.13,3.75,15.16,5.74,23.24,5.74s16.12-1.98,23.24-5.74c1.16-0.61,2.03-1.68,2.39-2.93 c0.36-1.26,0.2-2.58-0.45-3.72L72.85,73.7C71.99,72.22,70.41,71.3,68.71,71.3L68.71,71.3z" style="fill:#424242;"/>
      </g>
      <path d="M64,57.14c3.99,0,7.23,3.24,7.23,7.23S67.99,71.6,64,71.6s-7.23-3.24-7.23-7.23 S60.01,57.14,64,57.14 M64,54.14c-5.64,0-10.23,4.59-10.23,10.23c0,5.64,4.59,10.23,10.23,10.23c5.64,0,10.23-4.59,10.23-10.23 C74.23,58.73,69.64,54.14,64,54.14L64,54.14z" style="fill:#424242;"/>
    </g>
    <g>
      <g>
        <linearGradient id="SVGID_2_" gradientUnits="userSpaceOnUse" x1="90.4877" x2="90.4877" y1="22.5" y2="113.3742">
          <stop offset="0" style="stop-color:#616161"/>
          <stop offset="0.4947" style="stop-color:#3F3F3F"/>
          <stop offset="1" style="stop-color:#212121"/>
        </linearGradient>
        <path d="M76.51,64.37h32.66c1.02,0,1.83-0.86,1.79-1.88c-0.63-15.93-9.19-29.82-21.85-37.83 c-0.87-0.55-2.02-0.29-2.53,0.6L70.25,53.55c-0.46,0.79-0.23,1.77,0.49,2.34c2.13,1.69,3.62,4.17,4.01,7 C74.86,63.75,75.64,64.37,76.51,64.37z" style="fill:url(#SVGID_2_);"/>
        <linearGradient id="SVGID_3_" gradientUnits="userSpaceOnUse" x1="37.5123" x2="37.5123" y1="22.5" y2="113.3742">
          <stop offset="0" style="stop-color:#616161"/>
          <stop offset="0.4947" style="stop-color:#3F3F3F"/>
          <stop offset="1" style="stop-color:#212121"/>
        </linearGradient>
        <path d="M57.75,53.55L41.42,25.26c-0.51-0.89-1.66-1.15-2.53-0.6 c-12.65,8.02-21.22,21.9-21.85,37.83c-0.04,1.02,0.77,1.88,1.79,1.88h32.66c0.87,0,1.64-0.62,1.76-1.49 c0.39-2.83,1.87-5.31,4.01-7C57.98,55.32,58.21,54.34,57.75,53.55z" style="fill:url(#SVGID_3_);"/>
        <linearGradient id="SVGID_4_" gradientUnits="userSpaceOnUse" x1="64" x2="64" y1="22.5" y2="113.3742">
          <stop offset="0" style="stop-color:#616161"/>
          <stop offset="0.4947" style="stop-color:#3F3F3F"/>
          <stop offset="1" style="stop-color:#212121"/>
        </linearGradient>
        <path d="M64,75.22c-1.44,0-2.81-0.28-4.06-0.79c-0.81-0.33-1.75,0.01-2.19,0.77l-16.33,28.29 c-0.51,0.89-0.17,2.01,0.74,2.49c6.53,3.44,13.96,5.39,21.85,5.39s15.32-1.95,21.85-5.39c0.91-0.48,1.25-1.6,0.74-2.49 L70.25,75.2c-0.44-0.76-1.37-1.11-2.19-0.77C66.81,74.93,65.44,75.22,64,75.22z" style="fill:url(#SVGID_4_);"/>
      </g>
      <linearGradient id="SVGID_5_" gradientUnits="userSpaceOnUse" x1="64" x2="64" y1="22.5" y2="113.3742">
        <stop offset="0" style="stop-color:#616161"/>
        <stop offset="0.4947" style="stop-color:#3F3F3F"/>
        <stop offset="1" style="stop-color:#212121"/>
      </linearGradient>
      <circle cx="64" cy="64.37" r="7.23" style="fill:url(#SVGID_5_);"/>
    </g>
  </g>
</svg>
